src/icons/solid/media/folder.svg

<svg width="24" height="24" viewBox="0 0 24 24" fill="none" xmlns="http://www.w3.org/2000/svg">
<g clip-path="url(#clip0_4488_346)">
<path d="M21.3506 10.2438C21.8895 10.2438 22.3856 10.5204 22.6982 10.9694V10.9811C22.9892 11.4071 23.0757 11.9599 22.9248 12.4665L20.4346 20.8024C20.2298 21.5161 19.5941 21.9995 18.8613 21.9997H2.9834C2.44445 21.9997 1.94833 21.7231 1.63574 21.2741C1.34506 20.8483 1.25855 20.296 1.40918 19.7897L3.89941 11.4411C4.11509 10.7274 4.74078 10.2438 5.47363 10.2438H21.3506Z" fill="#3C3B44"/>
<path d="M6.83105 2.01138C7.53169 2.01138 8.20071 2.3687 8.62109 2.96744L10.0977 5.07388H18.0635L18.293 5.08658C19.4243 5.20922 20.3057 6.22814 20.3057 7.46939V8.81607H4.84766C3.9963 8.81626 3.25283 9.33501 2.9834 10.1178L1 16.3004V4.39517C1 3.07105 2.0026 1.99987 3.24219 2.01138H6.83105Z" fill="#3C3B44"/>
</g>
<defs>
<clipPath id="clip0_4488_346">
<rect width="24" height="24" fill="white"/>
</clipPath>
</defs>
</svg>

<svg xmlns="http://www.w3.org/2000/svg" width="24" height="24" fill="none" viewBox="0 0 24 24"><g fill="currentColor" clip-path="url(#a)"><path d="M21.35 10.244c.54 0 1.036.277 1.348.726v.011c.291.426.378.979.227 1.486l-2.49 8.335A1.634 1.634 0 0 1 18.86 22H2.983a1.65 1.65 0 0 1-1.347-.726 1.76 1.76 0 0 1-.227-1.484L3.9 11.44c.216-.714.842-1.197 1.575-1.197z"/><path d="M6.831 2.012c.7 0 1.37.357 1.79.956l1.477 2.106h7.966l.229.013c1.131.122 2.013 1.141 2.013 2.383v1.346H4.848c-.852 0-1.595.52-1.865 1.302L1 16.301V4.395C1 3.071 2.003 2 3.242 2.012z"/></g><defs><clipPath id="a"><path fill="currentColor" d="M0 0h24v24H0z"/></clipPath></defs></svg>
